X:38
T:Chicago
Z: id:dc-reel-37
M:C
L:1/8
K:A Dorian
AB|cded cAGE|G3E GAcd|ecgc acgc|eaag eged|!
cded cAGE|G3E GAcd|eaag eged|cABG A2:|!
AB|cdef g3a|gedc BGGB|cdef g2ed|eaag aged|!
cdef g3e|a3f g3e|f3d eged|cABG A2:|!

